X: 1
T:The Boar's Head
% Nottingham Music Database
%P:AAB
S:Vic
M:4/4
L:1/4
K:C
|:G|"C"c2 cc|"G"Bc "C"G3/2E/2|"F"FF "Dm"AF| [1"G"GA/2B/2 "C"c:| [2"G"GA/2B/2 "C"c2|
"C"ee "G"dd|"Am"AA "Em"G3/2E/2|"F"FF "Dm"AF|"G"GA/2B/2 "C"c||<end>
<start>
